X: 431
T:Pun Wwnare'se Merkirilu
% Nottingham Music Database
S:GFA
M:6/8
K:D
P:A
EDA|"Em"F2E mED|"G"F2G GAB|"A7"EAc cAA|"D"A6||
P:G
A/2B/2|B|"D"AGD AAF|"A7"A2B "D7"GGA|"A7"AAG "Dm"DEF|"G"D2G BAG|"D"F2A A2:|


